**kern	**text
*clefG2	*
*k[b-e-a-d-g-]	*
*M4/4	*
*MM240	*
=1	=1
1r	.
=2	=2
1r	.
=3	=3
1r	.
=4	=4
1r	.
=5	=5
1r	.
=6	=6
1r	.
=7	=7
1r	.
=8	=8
1r	.
=9	=9
1r	.
=10	=10
1r	.
=11	=11
1r	.
=12	=12
1r	.
=13	=13
1r	.
=14	=14
1r	.
=15	=15
1r	.
=16	=16
1r	.
=17	=17
1r	.
=18	=18
1r	.
=19	=19
1r	.
=20	=20
1r	.
=21	=21
1r	.
=22	=22
1r	.
=23	=23
2r	.
4r	.
8fL	- い
8fJ	i ち
=24	=24
4r	.
4f'	- ど
4r	.
4f'	- だ
=25	=25
2r	.
4r	.
4f'	- け
=26	=26
1r	.
=27	=27
2r	.
4r	.
8r	.
16a-LL	- ぼ
[16a-JJ	o く
=28	=28
20a-LL]	.
20a-J	u わ
10a-	a う
10a-	u ま
20a-K	a れ
10a-	e そ
[20a-Jk	o し
20a-LL]	.
20a-J	i て
10a-	e き
10a-	i ず
20a-K	u く
10a-	u しょ
[20a-Jk	o せ
=29	=29
20a-LL]	.
20a-J	e ん
10a-	n ひ
10a-	i と
20a-K	o の
10a-	o ま
[20a-Jk	a ね
28a-KLL]	.
14a-	e ご
14.a-	o と
14a-	o だ
14a-J	a と
7a-J	o し
=30	=30
*^	*
28r	8r	.
14a-LL	.	- て
14.a-'JJ	.	e な
.	16r	.
.	16a-	a お
14r	.	.
.	4r	.
14a-LL	.	o も
14a-	.	o う
14a-JJ	.	u た
10a-L	4r	a い
10a-	.	i つ
20a-Jk	.	u ず
20r	32r	.
.	16.a-	u く
20r	.	.
10a-L	.	u と
.	8r	.
[20a-Jk	.	o わ
=31	=31	=31
4a-]	20r	.
.	20a-KL	a の
.	10a-	o い
.	10a-	i の
8r	.	.
.	10a-'J	o ち
[8a-	.	i う
.	10r	.
20a-LL]	2r	.
20a-J	.	u た
10a-	.	a ろ
10a-	.	o い
20a-K	.	i ど
10a-	.	o た
[20a-Jk	.	a と
*v	*v	*
=32	=32
20a-LL]	.
20a-J	o え
10a-	e そ
10a-	o れ
20a-K	e が
10a-	a き
[20a-Jk	i ぞ
20a-LL]	.
20a-J	o ん
10a-	n きょ
10a-	o く
20a-K	u お
10a-	o な
[20a-Jk	a ぞ
=33	=33
20a-LL]	.
20a-J	o る
10a-	u お
10a-	o も
20a-K	o ちゃ
10a-	a な
[20a-Jk	a ら
28a-KLL]	.
14a-	a ば
14.a-	a そ
14a-	o れ
14a-J	e も
[7a-J	o い
=34	=34
20a-LL]	.
20a-J	i と
10a-	o け
10a-	e つ
20a-K	u い
10a-	i ね
[20a-Jk	e ぎ
20a-LL]	.
20a-J	i お
10a-	o か
10a-	a じ
20a-K	i り
10a-	i そ
[20a-Jk	o ら
=35	=35
20a-LL]	.
20a-J	a お
10a-	o み
10a-	i あ
20a-K	a げ
10a-	e し
[20a-Jk	i る
20a-LL]	.
20a-J	u お
10a-	o こ
10a-	o ぼ
20a-K	o す
10a-	u だ
[20a-Jk	a け
=36	=36
20a-LL]	.
20a-J	e ど
10a-	o そ
10a-	o れ
20a-K	e も
10a-	o な
[20a-Jk	a く
20a-LL]	.
20a-J	u し
10a-	i き
10a-	i ず
20a-K	u く
10a-	u じ
[20a-Jk	i ん
=37	=37
20a-LL]	.
20a-J	n か
10a-	a く
10a-	u す
20a-K	u ら
10a-	a う
[20a-Jk	u た
20a-LL]	.
20a-J	a に
10a-	i た
10a-	a よ
20a-K	o り
10a-	i ふ
[20a-Jk	u あ
=38	=38
20a-KL]	.
10.a-	a ん
10a-	n て
20a-K	e い
10a-	i な
[20a-Jk	a き
20a-LL]	.
20a-J	i ば
10a-	a ん
10a-	n の
20a-K	o も
10a-	o と
[20a-Jk	o か
=39	=39
20a-LL]	.
20a-J	a え
10a-	e る
10a-	u と
20a-K	o こ
10a-	o は
[20a-Jk	a す
20a-LL]	.
20a-J	u で
10a-	e に
10a-	i は
20a-K	a い
10a-	i きょ
[20a-Jk	o み
=40	=40
20a-LL]	.
20a-J	i な
10a-	a に
10a-	i わ
20a-K	a れ
10a-	e さ
[20a-Jk	a ら
20a-LL]	.
20a-J	a れ
10a-	e た
10a-	a と
20a-K	o き
10a-	i こ
[20a-Jk	o こ
=41	=41
20a-LL]	.
20a-J	o ろ
10a-	o ら
10a-	a し
20a-K	i き
10a-	i も
[20a-Jk	o の
28a-KLL]	.
14a-	o が
14.a-	a き
14a-	i え
14a-J	e て
[7a-J	e ぼ
=42	=42
*^	*
14.a-LL]	2r	.
[28a-JK	.	o そ
7a-]	.	.
14a-L	.	o の
14a-	.	o は
[14a-JJ	.	a て
28a-KLL]	8r	.
14a-	.	e に
14.a-'JJ	.	i み
.	16r	.
.	16a-	i え
14r	.	.
.	4r	.
14a-LL	.	e る
14a-	.	u お
14a-JJ	.	o わ
*v	*v	*
=43	=43
10a-L	a る
10a-	u せ
20a-Jk	e か
20r	.
20a-KL	a い
10.a-J	i う
10a-L	u た
10a-	a ろ
20a-Jk	o い
20r	.
10a-'	i ど
10r	.
=44	=44
1r	.
=45	=45
1r	.
=46	=46
1r	.
=47	=47
1r	.
=48	=48
1r	.
=49	=49
1r	.
=50	=50
1r	.
=51	=51
1r	.
=52	=52
1r	.
=53	=53
1r	.
=54	=54
1r	.
=55	=55
1r	.
=56	=56
1r	.
=57	=57
1r	.
=58	=58
1r	.
=59	=59
1r	.
=60	=60
4r	.
8r	.
8b-	- ぼ
8a-L	o く
8f	u が
8f-X	a う
8b-J	u ま
=61	=61
*^	*
12b-	8r	a く
6b-	.	u う
.	16r	.
.	32r	.
.	[32b-	u た
16r	16b-]	.
8.b-'	16r	a え
.	16r	.
.	[16b-	e な
24r	32b-]	.
.	32r	.
12.b-L	.	a い
.	16r	.
.	8r	.
[12b-J	.	i と
8b-L]	32r	.
.	16.a-	o き
8f-XJ	8r	i も
*v	*v	*
=62	=62
1r	.
=63	=63
9fL	- い
9b-	i しょ
9b-	o に
9b-	i に
9.b-	i い
18b-K	i て
9b-	e く
9b-	u れ
[9b-J	e た
=64	=64
4b-]	.
4r	.
2r	.
=65	=65
8b-L	- そ
8a-	o ば
8f-X	a に
8e-J	i い
4e-'	i て
4r	.
=66	=66
*^	*
8r	2r	.
8fL	.	- は
8gn	.	a げ
8b-J	.	e ま
12g	8r	a し
6f	.	i て
.	16r	.
.	32r	.
.	[32e-	e く
16r	16e-]	.
8fL	16r	u れ
.	8r	.
[16fJk	.	e た
*v	*v	*
=67	=67
4f]	.
4r	.
2r	.
=68	=68
2r	.
4r	.
8gnL	- よ
8ccJ	o ろ
=69	=69
8ccL	o ぶ
8cc	u か
8cc-X	a お
8a-J	o が
8b-L	a み
8b-J	i た
32b-KLL	a く
16.a-J	u て
8a-J	e R
=70	=70
2r	.
4r	.
8r	.
8b-	- ぼ
=71	=71
4gn'	o く
4r	.
2r	.
=72	=72
4r	.
8gnL	- う
8b-J	u た
4b-'	a R
4r	.
=73	=73
8r	.
8b-L	- れ
8b-	e ん
8b-J	n しゅ
8b-L	u う
8b-	u し
8b-	i た
8ddnJ	a よ
=74	=74
2r	.
8r	.
8ccL	- だ
8cc-X	a か
8anJ	a ら
=75	=75
4an'	a R
4r	.
4r	.
8r	.
[8f	- か
=76	=76
8fL]	.
8B-J	a つ
2dn	u て
4r	.
=77	=77
4r	.
8r	.
[8e-	- う
8e-]	.
4f	u た
[8b-	a う
=78	=78
4b-]	.
[4a-	u こ
8a-]	.
[4.e-	o と
=79	=79
8e-]	.
8r	.
4r	.
8r	.
8B-L	- あ
8c	a ん
8d-J	n な
=80	=80
4d-'	a に
4r	.
8r	.
8cL	- た
8d-	a の
[8e-J	o し
=81	=81
4.e-]	.
[8a-	i か
4.a-]	.
[8a-	a あ
=82	=82
4a-]	.
[4g-	a た
8g-]	.
4f	a の
[8d-	o に
=83	=83
2d-]	.
4r	.
8r	.
[8f	- い
=84	=84
8fL]	.
8B-J	i ま
2dn	a わ
4r	.
=85	=85
4r	.
8r	.
[8e-	- ど
8e-]	.
4f	o お
[8dd-	o し
=86	=86
4dd-]	.
[4cc	i て
8cc]	.
4b-	e か
[8a-	a な
=87	=87
4a-]	.
8r	.
[8f	- な
8f]	.
4a-	a に
[8b-	i も
=88	=88
4b-]	.
4r	.
8r	.
8d-L	- か
8d-	a ん
[8e-J	n じ
=89	=89
4.e-]	.
[8a-	i な
4.a-]	.
[8a-	a く
=90	=90
4.a-]	.
[8g-	u な
4.g-]	.
[8f	a あ
=91	=91
4.f]	.
[8d-	a て
4.d-]	.
8r	.
=92	=92
8r	.
4f	- な
[8f	a つ
8fL]	.
8e-J	u か
4a-	a し
=93	=93
4g-	i い
4f	i か
2c	a お
=94	=94
8r	.
4d-	- お
[8d-	o も
8d-L]	.
8e-J	o い
4f	i だ
=95	=95
4e-	a す
4d-	u た
2e-	a び
=96	=96
8r	.
4c	- す
[8c	u こ
8cL]	.
8d-J	o し
4e-	i だ
=97	=97
4e-	a け
8r	.
[8d-	- あ
8d-]	.
4e-	a ん
[8g-	n し
=98	=98
4.g-]	.
[8f	i ん
4.f]	.
[8e-	n す
=99	=99
4.e-]	.
[8f	u る
4f]	.
8r	.
[8c	- う
=100	=100
4c]	.
[4d-	u た
8d-]	.
4.a-	a え
=101	=101
4.g-	e る
[8f	u お
8f]	.
4c	o と
[8d-	o ひ
=102	=102
4d-]	.
[4e-	i ご
8e-]	.
4.d-	o と
=103	=103
4.c	o に
[8d-	i へ
8d-]	.
4e-	e り
[8f	i せ
=104	=104
8fL]	.
8e-J	e ま
4f	a る
4a-	u さ
4gn	a い
=105	=105
4f	i ご
4e-	o に
8ffL	- う
8ccc	u た
8bb-	a い
8cccJ	i た
=106	=106
8ggn	a い
4gg	i あ
32r	.
16gg'LL	- あ
32ggJJk	- あ
32r	.
16gg'LL	- あ
32ggJJk	- あ
32r	.
16gg'LL	- あ
32ggJJk	- あ
32r	.
16gg'LL	- あ
32ggJJk	- あ
32r	.
16gg'LL	- あ
32ggJJk	- あ
=107	=107
32r	.
32ggnKLL	- あ
*clefF4	*
[16Gn	- き
32GK]	.
16.GJJ	i ん
16.GLL	n きゅ
[32GK	u う
16G]	.
16GJJ	u て
16.GLL	e い
[32GK	i し
16G]	.
16GJJ	i そ
8GL	o う
*clefG2	*
[8a-J	- し
=108	=108
4a-]	.
[4e-	i ん
8e-L]	.
8a-	n じ
8b-	i た
[8ccJ	a も
=109	=109
8cc]	.
4b-	o の
[8a-	o わ
8a-L]	.
8cc	a つ
8dd-	u ご
[8ee-J	o お
=110	=110
4ee-]	.
4ee-	o の
8ff	o い
4ee-	i い
[8ee-	i も
=111	=111
8ee-]	.
4dd-	o お
[8cc	o そ
8cc]	.
4dd-	o お
[8cc	o お
=112	=112
8cc]	.
8r	.
8r	.
[8cc	- く
8cc]	.
4aa-	u り
[8aa-	i か
=113	=113
4aa-]	.
[4ggn	a え
8gg]	.
4cc	e し
[8b-	i う
=114	=114
8b-]	.
4a-	u つ
[8b-	u し
8b-L]	.
8ccJ	i だ
[4b-	a す
=115	=115
8b-]	.
4dd-	u か
[8cc	a が
8cc]	.
4b-	a み
[8a-	i う
=116	=116
4a-]	.
[4e-	u た
8e-L]	.
8a-	a ひ
8b-	i め
[8ccJ	e お
=117	=117
8cc]	.
4b-	o や
[8a-	a め
8a-L]	.
8cc	e た
8dd-	a た
[8ee-J	a き
=118	=118
8ee-L]	.
8ee-J	i つ
4ee-	u け
8ff	e る
4ee-	u よ
[8ee-	o お
=119	=119
8ee-]	.
4dd-	o に
[8cc	i さ
8cc]	.
4dd-	a け
[8cc	e ぶ
=120	=120
8cc]	.
8r	.
8r	.
[8cc	- さ
8cc]	.
4aa-	a い
[8aa-	i こ
=121	=121
4aa-]	.
[4ggn	o お
8gg]	.
4cc	o そ
[8b-	o く
=122	=122
8b-]	.
4a-	u の
[8b-	o わ
8b-L]	.
8ccJ	a か
[4b-	a れ
=123	=123
8b-]	.
4dd-	e の
[8cc	o う
8cc]	.
4b-	u た
16a-LL	- そ
[16a-JJ	o ん
=124	=124
16a-LL]	.
16a-	n ざ
16a-	a い
[16a-JJ	i い
16a-LL]	.
16a-	i ぎ
16a-	i と
[16a-JJ	o い
16a-LL]	.
16a-	i う
16a-	u きょ
[16a-JJ	o ぞ
8a-L]	.
8a-'J	o ふ
=125	=125
16r	.
16a-LL	- て
16a-	e は
[16a-JJ	a ら
16a-LL]	.
16a-	a う
16a-	u こ
[16a-JJ	o と
16a-LL]	.
16a-	o も
16a-	o で
[16a-JJ	e き
16a-LL]	.
16a-	i ず
16a-	u よ
[16a-JJ	o わ
=126	=126
16a-LL]	.
16a-	a い
16a-	i こ
[16a-JJ	o こ
16a-LL]	.
16a-	o ろ
16a-	o き
[16a-JJ	i え
16a-LL]	.
16a-	e る
16a-	u きょ
[16a-JJ	o う
16a-LL]	.
16a-	u ふ
16a-	u し
[16a-JJ	i ん
=127	=127
16a-LL]	.
16a-	n しょ
16a-	o く
[16a-JJ	u す
16a-LL]	.
16a-	u る
16a-	u ほ
[16a-JJ	o う
16a-LL]	.
16a-	u か
16a-	a い
[16a-JJ	i お
16a-LL]	.
16a-	o も
16a-	o と
[16a-JJ	o め
=128	=128
16a-LL]	.
16a-	e る
16a-	u ほ
[16a-JJ	o ど
16a-LL]	.
16a-	o の
16a-	o い
[16a-JJ	i し
16a-LL]	.
16a-	i の
16a-	o つ
[16a-JJ	u よ
16a-LL]	.
16a-	o さ
16a-	a う
[16a-JJ	u ま
=129	=129
16a-LL]	.
16a-	a れ
16a-	e す
[16a-JJ	u ぐ
16a-LL]	.
16a-	u の
16a-	o ぼ
[16a-JJ	o く
16a-LL]	.
16a-	u わ
16a-	a も
[16a-JJ	o た
16a-LL]	.
16a-	a ず
16a-	u と
[16a-JJ	o て
=130	=130
16a-LL]	.
16a-	e も
16a-	o つ
[16a-JJ	u ら
16a-LL]	.
16a-	a く
16a-	u か
[16a-JJ	a な
16a-LL]	.
16a-	a し
16a-	i そ
[16a-JJ	o う
16a-LL]	.
16a-	u な
16a-	a お
[16a-JJ	o も
=131	=131
16a-LL]	.
16a-	o い
16a-	i う
[16a-JJ	u か
16a-LL]	.
16a-	a ぶ
16a-	u あ
[16a-JJ	a な
16a-LL]	.
16a-	a た
16a-	a の
[16a-JJ	o か
16a-LL]	.
16a-	a お
16a-	o お
[16a-JJ	o わ
=132	=132
16a-LL]	.
16a-	a り
16a-	i お
[16a-JJ	o つ
16a-LL]	.
16a-	u げ
16a-	e でぃ
[16a-JJ	i す
16a-LL]	.
16a-	u ぷ
16a-	u れ
[16a-JJ	e い
16a-LL]	.
16a-	i の
16a-	o な
[16a-JJ	a か
=133	=133
16a-LL]	.
16a-	a で
16a-	e ね
[16a-JJ	e む
16a-LL]	.
16a-	u る
16a-	u こ
[16a-JJ	o こ
16a-LL]	.
16a-J	o わ
8a-'J	a き
16r	.
16a-LL	- と
16a-	o ご
[16a-JJ	o み
=134	=134
16a-LL]	.
16a-	i は
16a-	a こ
[16a-JJ	o か
16a-LL]	.
16a-	a な
16a-	a じ
[16a-JJ	i き
16a-LL]	.
16a-	i に
16a-	i き
[16a-JJ	i お
16a-LL]	.
16a-	o く
16cc	u も
[16a-JJ	o な
=135	=135
16a-LL]	.
16a-J	a く
8a-'J	u な
16r	.
16a-LL	- て
16a-	e し
[16a-JJ	i ま
16a-LL]	.
16a-	a う
16a-	u な
[16a-JJ	a ん
16a-LL]	.
16a-	n て
16a-	e で
[16a-JJ	e も
=136	=136
16a-LL]	.
16a-	o ね
16a-	e あ
[16a-JJ	a な
16a-LL]	.
16a-	a た
16a-	a だ
[16a-JJ	a け
16a-LL]	.
16a-	e わ
16a-	a わ
[16a-JJ	a す
16a-LL]	.
16a-	u れ
16a-	e な
[16a-JJ	a い
=137	=137
16a-LL]	.
16a-	i よ
16a-	o た
[16a-JJ	a の
16a-LL]	.
16a-J	o し
8a-'J	i か
16r	.
16a-LL	- た
16a-	a と
[16a-JJ	o き
16a-LL]	.
16a-	i に
16a-	i き
[16a-JJ	i ざ
=138	=138
16a-LL]	.
16a-	a み
16a-	i ず
[16a-JJ	u け
16a-LL]	.
16a-	e た
16cc	a ね
[16a-JJ	e ぎ
16a-LL]	.
16a-	i の
16a-	o あ
[16a-JJ	a じ
16a-LL]	.
16a-	i わ
16a-	a い
[16a-JJ	i ま
=139	=139
16a-LL]	.
16a-	a も
16a-	o お
[16a-JJ	o ぼ
16a-LL]	.
16a-	o え
16a-	e て
[16a-JJ	e る
16a-LL]	.
16a-J	u か
8a-J	a な
4r	.
=140	=140
1r	.
=141	=141
1r	.
=142	=142
4a-'	- う
8a-L	- う
[8b-J	u た
16b-KL]	.
8b-	a い
[16b-Jk	i た
16b-KL]	.
8.a-J	a い
=143	=143
1r	.
=144	=144
4r	.
8r	.
8a-	- ま
4r	.
8r	.
8b-	- ま
=145	=145
4a-'	a だ
4r	.
2r	.
=146	=146
4r	.
8ee-L	- う
[8ffJ	u た
16ffKL]	.
8ff	a い
[16ffJk	i た
16ffKL]	.
[8.ee-J	a い
=147	=147
4ee-]	.
4r	.
2r	.
=148	=148
1r	.
=149	=149
1r	.
=150	=150
1r	.
=151	=151
1r	.
=152	=152
1r	.
=153	=153
1r	.
=154	=154
1r	.
=155	=155
1r	.
=156	=156
1r	.
=157	=157
1r	.
=158	=158
1r	.
=159	=159
1r	.
=160	=160
1r	.
=161	=161
1r	.
=162	=162
1r	.
=163	=163
1r	.
=164	=164
2r	.
14.anLL	- ぼ
14.gnJ	o く
7f-X	u わ
7f-J	a R
=165	=165
1r	.
=166	=166
8f-XL	- す
8gn	u こ
8g	o し
8gJ	i だ
8gL	a け
8gJ	e R
4r	.
=167	=167
4r	.
8fL	- わ
8a-J	a る
8a-L	u い
8f	i こ
8dn	o に
8dJ	i R
=168	=168
*^	*
4r	2r	.
4gn'	.	- な
7e-	8r	- て
.	8e-	e し
14r	.	.
7fL	.	i ま
.	4r	.
14d-L	.	a た
[14fJJ	.	a よ
*v	*v	*
=169	=169
16fKL]	.
8f	o お
[16c-XJk	o で
16c-KL]	.
8.An'J	e す
2r	.
=170	=170
4r	.
8r	.
8gn	- ま
8gL	a す
8fJ	u た
4e-'	a R
=171	=171
2r	.
8f-XL	- ど
8f-	o お
8d-	u か
8d-J	a R
=172	=172
2r	.
8gnL	- ど
8g	o お
8e-	u か
8e-J	a そ
=173	=173
8gnL	o の
8g	o て
8e-	e で
[8e-J	e R
8e-]	.
8r	.
4r	.
=174	=174
*^	*
2r	4r	.
.	8r	.
.	8c	- お
4r	8fL	.
.	8fJ	a ら
8r	12f	.
.	6f	e て
16r	.	.
32r	.	.
[32f	.	e く
=175	=175	=175
16fKL]	6r	.
8.f'J	.	u だ
.	6f	a さ
4r	.	.
.	6c'	a い
2r	2r	.
*v	*v	*
=176	=176
2r	.
8a-L	- ま
8a-	a す
8e-	u た
8f-XJ	a の
=177	=177
8f-XL	o つ
8g-	u ら
8g-	a い
8g-J	i か
8f-L	a お
8dnJ	o R
4r	.
=178	=178
4g-	- も
4f-X'	o R
4r	.
8r	.
8e-	- み
=179	=179
8g-L	i た
8e-	a く
8g-	u な
8g-J	a い
8f-XL	i か
8d-	a ら
8c-X	a R
[8fnJ	- い
=180	=180
8fL]	.
8B-J	i ま
2dn	a わ
4r	.
=181	=181
4r	.
8r	.
[8e-	- う
8e-]	.
4f	u た
[8b-	a さ
=182	=182
4b-]	.
[4a-	a え
8a-]	.
[4.e-	e も
=183	=183
8e-]	.
8r	.
4r	.
8r	.
8B-L	- か
8c	a ら
[8d-J	a だ
=184	=184
8d-]	.
8r	.
4r	.
8r	.
8cL	- む
8d-	u し
[8e-J	i ば
=185	=185
4.e-]	.
[8a-	a む
4.a-]	.
[8a-	u こ
=186	=186
4a-]	.
[4g-	o お
8g-]	.
4f	o い
[8d-	i に
=187	=187
2d-]	.
4r	.
8r	.
[8f	- き
=188	=188
8fL]	.
8B-J	i せ
2dn	e き
4r	.
=189	=189
2r	.
8r	.
4f	- ね
[8dd-	e が
=190	=190
4dd-]	.
[4cc	a う
8cc]	.
4b-	u た
[8a-	a び
=191	=191
4.a-]	.
[8f	i ひ
8f]	.
4a-	i と
[8b-	o り
=192	=192
4b-]	.
4r	.
8r	.
4d-	- お
[8e-	o い
=193	=193
4.e-]	.
[8a-	i つ
4.a-]	.
[8a-	u め
=194	=194
4.a-]	.
[8g-	e ら
4.g-]	.
[8f	a れ
=195	=195
4.f]	.
[8d-	e る
4.d-]	.
8r	.
=196	=196
8r	.
4f	- な
[8f	a つ
8fL]	.
8e-J	u か
4a-	a し
=197	=197
4g-	i い
4f	i か
2c	a お
=198	=198
8r	.
4d-	- お
[8d-	o も
8d-L]	.
8e-J	o い
4f	i だ
=199	=199
4e-	a す
4d-	u た
2e-	a び
=200	=200
8r	.
4c	- き
[8c	i お
8c]	.
4d-	o く
[8e-	u が
=201	=201
4e-]	.
8r	.
[8d-	- は
8d-]	.
4e-	a が
[8g-	a れ
=202	=202
4.g-]	.
[8f	e お
4.f]	.
[8e-	o ち
=203	=203
4.e-]	.
[8f	i る
4f]	.
8r	.
[8c	- こ
=204	=204
4c]	.
[4d-	o わ
8d-]	.
4.a-	a れ
=205	=205
4.g-	e る
[8f	u お
8f]	.
4c	o と
[8d-	o こ
=206	=206
4d-]	.
[4e-	o こ
8e-]	.
4.d-	o ろ
=207	=207
4.c	o け
[8d-	e ず
8d-]	.
4e-	u る
[8f	i せ
=208	=208
8fL]	.
8e-J	e ま
4f	a る
4a-	u さ
4gn	a い
=209	=209
*^	*
4f	4r	i ご
4r	2e-	.
8ffL	.	- う
8ccc	.	u た
8bb-	4r	a い
8cccJ	.	i た
*v	*v	*
=210	=210
8ggn	a い
4gg	i あ
32r	.
16gg'LL	- あ
32ggJJk	- あ
32r	.
16gg'LL	- あ
32ggJJk	- あ
32r	.
16gg'LL	- あ
32ggJJk	- あ
32r	.
16gg'LL	- あ
32ggJJk	- あ
32r	.
16gg'LL	- あ
32ggJJk	- あ
=211	=211
*^	*
*	*^	*
32r	2r	2r	.
32ggnKLL	.	.	- あ
*clefF4	*	*	*
[16Gn	.	.	- き
32GK]	.	.	.
16.GJJ	.	.	i ん
16.GLL	.	.	n きゅ
[32GK	.	.	u う
16G]	.	.	.
16GJJ	.	.	u て
16.GLL	4r	4r	e い
[32GK	.	.	i し
16G]	.	.	.
16GJJ	.	.	i そ
8.G'L	8r	16r	o う
.	.	32r	.
*clefG2	*	*	*
.	.	[32G/KLL	u ち
.	[8a-	16G/JJ]	- ま
16GJk	.	16r	i さ
*	*v	*v	*
=212	=212	=212
16.GnLL	4a-]	a ど
[32GK	.	o う
16GJJ]	.	.
16r	.	.
[4e-	4r	a も
8e-L]	2r	.
8a-	.	o お
8b-	.	o た
[8ccJ	.	a も
*v	*v	*
=213	=213
8cc]	.
4b-	o の
[8a-	o わ
8a-L]	.
8cc	a あ
8dd-	a か
[8ee-J	a る
=214	=214
8ee-L]	.
8ee-J	u い
4ee-	i み
8ff	i ら
4ee-	a い
[8ee-	i げ
=215	=215
8ee-]	.
4dd-	e ん
[8cc	n そ
8cc]	.
4dd-	o お
[8cc	o お
=216	=216
8cc]	.
8r	.
8r	.
[8cc	- み
8cc]	.
4aa-	i せ
[8aa-	e な
=217	=217
4aa-]	.
[4ggn	a が
8gg]	.
4cc	a ら
[8b-	a き
=218	=218
8b-]	.
4a-	i え
[8b-	e て
8b-L]	.
8ccJ	e ゆ
[4b-	u く
=219	=219
8b-]	.
4dd-	u ひ
[8cc	i か
8cc]	.
4b-	a り
[8a-	i お
=220	=220
4a-]	.
[4e-	o と
8e-L]	.
8a-	o お
8b-	o き
[8ccJ	i せ
=221	=221
8cc]	.
4b-	e い
[8a-	i に
8a-L]	.
8cc	i す
8dd-	u べ
[8ee-J	e て
=222	=222
8ee-L]	.
8ee-J	e お
4ee-	o つ
8ff	u た
4ee-	a え
[8ee-	e ら
=223	=223
8ee-]	.
4dd-	a れ
[8cc	e る
8cc]	.
4dd-	u な
[8cc	a ら
=224	=224
8cc]	.
8r	.
8r	.
[8cc	- あ
8cc]	.
4aa-	a あ
[8aa-	a しゅ
=225	=225
4aa-]	.
[4ggn	u く
8gg]	.
4cc	u さ
[8b-	a れ
=226	=226
8b-]	.
4a-	e た
[8b-	a わ
8b-L]	.
8ccJ	a か
[4b-	a れ
=227	=227
8b-]	.
4dd-	e の
[8cc	o う
8cc]	.
4b-	u た
8a-	- ぼ
=228	=228
16a-'LL	o く
16a-	u わ
16a-	a う
[16a-JJ	u ま
16a-LL]	.
16a-	a れ
16a-	e そ
[16a-JJ	o し
16a-LL]	.
16a-	i て
16a-	e き
[16a-JJ	i ず
16a-LL]	.
16a-	u く
16a-	u しょ
[16a-JJ	o せ
=229	=229
16a-LL]	.
16a-	e ん
16a-	n ひ
[16a-JJ	i と
16a-LL]	.
16a-	o の
16a-	o ま
[16a-JJ	a ね
16a-LL]	.
16a-	e ご
16a-	o と
[16a-JJ	o だ
16a-LL]	.
16a-J	a と
8a-'J	o し
=230	=230
20r	.
20a-KL	- て
10a-	e な
10a-	a お
20a-K	o も
10a-	o う
20a-Jk	u た
8a-L	a い
16a-L	i つ
16a-JJ	u ず
8a-L	u く
16a-L	u と
[16a-JJ	o わ
=231	=231
16a-LL]	.
16a-	a の
16a-	o い
[16a-JJ	i の
16a-LL]	.
16a-J	o ち
[8a-J	i う
16a-LL]	.
16a-	u た
16a-	a ろ
[16a-JJ	o い
16a-LL]	.
16a-	i ど
16a-	o た
[16a-JJ	a と
=232	=232
16a-LL]	.
16a-	o え
16a-	e そ
[16a-JJ	o れ
16a-LL]	.
16a-	e が
16a-	a き
[16a-JJ	i ぞ
16a-LL]	.
16a-	o ん
16a-	n きょ
[16a-JJ	o く
16a-LL]	.
16a-	u お
16a-	o な
[16a-JJ	a ぞ
=233	=233
16a-LL]	.
16a-	o る
16a-	u お
[16a-JJ	o も
16a-LL]	.
16a-	o ちゃ
16a-	a な
[16a-JJ	a ら
16a-LL]	.
16a-	a ば
16a-	a そ
[16a-JJ	o れ
16a-LL]	.
16a-J	e も
[8a-J	o い
=234	=234
16a-LL]	.
16a-	i と
16a-	o け
[16a-JJ	e つ
16a-LL]	.
16a-	u い
16a-	i ね
[16a-JJ	e ぎ
16a-LL]	.
16a-	i お
16a-	o が
[16a-JJ	a じ
16a-LL]	.
16a-	i り
16a-	u そ
[16a-JJ	o ら
=235	=235
16a-LL]	.
16a-	a お
16a-	o み
[16a-JJ	i あ
16a-LL]	.
16a-	a げ
16a-	e し
[16a-JJ	i る
16a-LL]	.
16a-	u お
16a-	o こ
[16a-JJ	o ぼ
16a-LL]	.
16a-	o す
16a-	u お
[16a-JJ	o わ
=236	=236
16a-LL]	.
16a-	a り
16a-	i お
[16a-JJ	o つ
16a-LL]	.
16a-	u げ
16a-	e でぃ
[16a-JJ	i す
16a-LL]	.
16a-	u ぷ
16a-	u れ
[16a-JJ	e い
16a-LL]	.
16a-	i の
16a-	o な
[16a-JJ	a か
=237	=237
16a-LL]	.
16a-	a で
16a-	e ね
[16a-JJ	e む
16a-LL]	.
16a-	u る
16a-	u こ
[16a-JJ	o こ
16a-LL]	.
16a-J	o わ
8a-'J	a き
16r	.
16a-LL	- と
16a-	o ご
[16a-JJ	o み
=238	=238
16a-LL]	.
16a-	i は
16a-	a こ
[16a-JJ	o か
16a-LL]	.
16a-	a な
16a-	a じ
[16a-JJ	i き
16a-LL]	.
16a-	i に
16a-	i き
[16a-JJ	i お
16a-LL]	.
16a-	o く
16cc	u も
[16a-JJ	o な
=239	=239
16a-LL]	.
16a-J	a く
8a-'J	u な
16r	.
16a-LL	- て
16a-	e し
[16a-JJ	i ま
16a-LL]	.
16a-	a う
16a-	u な
[16a-JJ	a ん
16a-LL]	.
16a-	n て
16a-	e で
[16a-JJ	e も
=240	=240
16a-LL]	.
16a-	o ね
16a-	e あ
[16a-JJ	a な
16a-LL]	.
16a-	a た
16a-	a だ
[16a-JJ	a け
16a-LL]	.
16a-	e わ
16a-	a わ
[16a-JJ	a す
16a-LL]	.
16a-	u れ
16a-	e な
[16a-JJ	a い
=241	=241
16a-LL]	.
16a-	i よ
16a-	o た
[16a-JJ	a の
16a-LL]	.
16a-J	o し
8a-'J	i か
16r	.
16a-LL	- た
16a-	a と
[16a-JJ	o き
16a-LL]	.
16a-	i に
16a-	i き
[16a-JJ	i ざ
=242	=242
16a-LL]	.
16a-	a み
16a-	i ず
[16a-JJ	u け
16a-LL]	.
16a-	e た
16cc	a ね
[16a-JJ	e ぎ
16a-LL]	.
16a-	i の
16a-	o あ
[16a-JJ	a じ
16a-LL]	.
16a-	i わ
16a-	a い
[16a-JJ	i ま
=243	=243
16a-LL]	.
16a-	a も
16a-	o お
[16a-JJ	o ぼ
16a-LL]	.
16a-	o え
16a-	e て
[16a-JJ	e る
16a-LL]	.
16a-JJ	u か
4a-	a な
8a-	- ぼ
=244	=244
16a-'LL	o く
16a-	u わ
16a-	a う
[16a-JJ	u た
16a-LL]	.
16a-	a う
16a-	u さ
[16a-JJ	a い
16a-LL]	.
16a-	i ご
16a-	o あ
[16a-JJ	a な
16a-LL]	.
16a-	a た
16a-	a だ
[16a-JJ	a け
=245	=245
16a-LL]	.
16a-	e に
16a-	i き
[16a-JJ	i い
16a-LL]	.
16a-	i て
16a-	e ほ
[16a-JJ	o し
16a-LL]	.
16a-	i い
16a-	i きょ
[16a-JJ	o く
16a-LL]	.
16a-J	u お
8a-'J	o も
=246	=246
16r	.
16a-LL	- と
16a-	o う
[16a-JJ	u た
16a-LL]	.
16a-	a い
16a-	i た
[16a-JJ	a い
16a-LL]	.
16a-	i と
16a-	o ね
[16a-JJ	e が
16a-LL]	.
16a-	a う
16a-	u け
[16a-JJ	e れ
=247	=247
16a-LL]	.
16a-	e ど
16a-	o そ
[16a-JJ	o れ
16a-LL]	.
16a-	e わ
16a-	a す
[16a-JJ	u ぎ
16a-LL]	.
16a-	i た
16a-	a ね
[16a-JJ	e が
16a-LL]	.
16a-	a い
16a-	i こ
[16a-JJ	o こ
=248	=248
16a-LL]	.
16a-	o で
16a-	e お
[16a-JJ	o わ
16a-LL]	.
16a-	a か
16a-	a れ
[16a-JJ	e だ
16a-LL]	.
16a-	a よ
16a-	o ぼ
[16a-JJ	o く
16a-LL]	.
16a-	u の
16a-	o お
[16a-JJ	o も
=249	=249
16a-LL]	.
16a-	o い
16a-	i す
[16a-JJ	u べ
16a-LL]	.
16a-	e て
16a-	e きょ
[16a-JJ	o そ
16a-LL]	.
16a-	o ら
16a-	a き
[16a-JJ	i え
16a-LL]	.
16a-	e て
16a-	e ぜ
[16a-JJ	e ろ
=250	=250
16a-LL]	.
16a-	o と
16a-	o い
[16a-JJ	i ち
16a-LL]	.
16a-	i に
16a-	i か
[16a-JJ	a ん
16a-LL]	.
16a-	n げ
16a-	e ん
[16a-JJ	n さ
16a-LL]	.
16a-	a れ
16a-	e も
[16a-JJ	o の
=251	=251
16a-LL]	.
16a-	o が
16a-	a た
[16a-JJ	a り
16a-LL]	.
16a-	i わ
16a-	a ま
[16a-JJ	a く
16a-LL]	.
16a-	u お
16a-	o と
[16a-JJ	o じ
16a-LL]	.
16a-	i る
16a-	u そ
[16a-JJ	o こ
=252	=252
16a-LL]	.
16a-	o に
16a-	i な
[16a-JJ	a に
16a-LL]	.
16a-	i も
16a-	o の
[16a-JJ	o こ
16a-LL]	.
16a-	o せ
16a-	e な
[16a-JJ	a い
16a-LL]	.
16a-J	i と
8a-'J	o や
=253	=253
16r	.
16a-LL	- ぱ
16a-	a す
[16a-JJ	u こ
16a-LL]	.
16a-	o し
16a-	i ざ
[16a-JJ	a ん
16a-LL]	.
16a-	n ね
16a-	e ん
[16a-JJ	n か
16a-LL]	.
16a-	a な
16a-	a こ
[16a-JJ	o え
=254	=254
16a-LL]	.
16a-	e の
16a-	o き
[16a-JJ	i お
16a-LL]	.
16a-	o く
16a-	u そ
[16a-JJ	o れ
16a-LL]	.
16a-	e い
16a-	i が
[16a-JJ	a い
16a-LL]	.
16a-	i わ
16a-	a や
[16a-JJ	a が
=255	=255
16a-LL]	.
16a-	a て
16a-	e う
[16a-JJ	u す
16a-LL]	.
16a-	u れ
16a-	e な
[16a-JJ	a だ
16a-LL]	.
16a-	a け
16a-	e の
[16a-JJ	o こ
16a-LL]	.
16a-	o る
16a-	u た
[16a-JJ	a と
=256	=256
16a-LL]	.
16a-	o え
16a-	e そ
[16a-JJ	o れ
16a-LL]	.
16a-	e が
16a-	a お
[16a-JJ	o り
16a-LL]	.
16a-	i じ
16a-	i な
[16a-JJ	a る
16a-LL]	.
16a-	u に
16a-	i か
[16a-JJ	a な
=257	=257
*^	*
9a-L]	16r	.
.	8.a-'	a う
9a-	.	u こ
9a-'J	.	o と
.	16r	.
.	16a-KL	o の
9r	.	.
.	8a-'J	o な
9a-L	.	a い
.	8r	.
9a-'J	.	i と
.	8a-'	o し
9r	.	.
.	4r	.
9a-L	.	- て
9a-'J	.	e う
=258	=258	=258
16a-LL	4r	u た
16a-J	.	a い
8a-J	.	i き
16r	8r	.
16a-KL	.	- た
8a-J	16r	a こ
.	[16a-	o と
28r	16a-]	.
14.a-LL	.	o お
.	16r	.
.	8r	.
14a-	.	o け
14a-	.	e し
.	4r	.
14.a-	.	i て
14.a-'JJ	.	e む
=259	=259	=259
28r	4a-'	.
14.a-LL	.	a じゃ
14a-	.	a な
14a-	.	a い
.	4r	.
14.a-	.	i と
14.a-'JJ	.	o お
28a-KLL	2r	o も
14.a-	.	o い
14a-	.	i た
14a-J	.	a い
7a-J	.	i よ
14r	.	.
*v	*v	*
=260	=260
1r	.
=261	=261
1r	.
=262	=262
1r	.
=263	=263
1r	.
=264	=264
1r	.
=265	=265
1r	.
=266	=266
1r	.
=267	=267
1r	.
=268	=268
1r	.
=269	=269
*^	*
4r	4r	.
8r	4a-'	.
[8b-	.	a り
16b-]	8.a-L	i が
16r	.	.
8r	.	.
.	[16a-Jk	a と
4r	8a-]	.
.	8r	.
*v	*v	*
=270	=270
1r	.
=271	=271
4r	.
8r	.
8f-X	- そ
12gn	o し
6g	i て
4g'	e R
=272	=272
1r	.
=273	=273
8dnL	- さ
8f-XJ	a よ
6f-	o な
[12f-	a ら
16f-KL]	.
8.gnJ	a R
4r	.
=274	=274
1r	.
=275	=275
1r	.
=276	=276
2r	.
8anL	- し
16aL	i ん
[16aJJ	n こ
16aLL]	.
16a	o く
16a	u な
[16aJJ	a え
=277	=277
16aKL]	.
8gn	e ら
16gJk	a が
4f-X'	a は
8gL	- せ
8gJ	e い
16gKL	i し
8g	i ま
16gJk	a し
=278	=278
4f'	i た
4r	.
2r	.
=279	=279
2r	.
8anL	- し
16aL	i ん
[16aJJ	n こ
16aLL]	.
16a	o く
16a	u な
[16aJJ	a え
=280	=280
16aKL]	.
8gn	e ら
32cLL	a ん
*clefF4	*
32FJJJ	n ん
32CKLL	n ん
16.FF'JJ	n ん
8r	.
2r	.
==	==
*-	*-
